X: 305563
M: 2/4
L: 1/16
K: D
|: e2 |\
fedf eAAd | fedf abag | fedf eAAA | fdec d2(de) |\
fedf eAAd | fedf abag | fedf eAAA | fdec d2 :|


